modules/themify-icons/icons/align-justify.svg

<?xml version="1.0" encoding="utf-8"?>
<!-- Generated by IcoMoon.io -->
<!DOCTYPE svg PUBLIC "-//W3C//DTD SVG 1.1//EN" "http://www.w3.org/Graphics/SVG/1.1/DTD/svg11.dtd">
<svg version="1.1" xmlns="http://www.w3.org/2000/svg" xmlns:xlink="http://www.w3.org/1999/xlink" width="17" height="17" viewBox="0 0 17 17">
<g>
</g>
	<path d="M17 2v1h-17v-1h17zM0 7h17v-1h-17v1zM0 11h17v-1h-17v1zM0 15h17v-1h-17v1z" fill="#000000" />
</svg>

<svg xmlns="http://www.w3.org/2000/svg" width="17" height="17" viewBox="0 0 17 17"><path d="M17 2v1H0V2h17zM0 7h17V6H0v1zm0 4h17v-1H0v1zm0 4h17v-1H0v1z"/></svg>
